src/assets/icons/pencil.svg

<svg width="14" height="14" viewBox="0 0 14 14" fill="none" xmlns="http://www.w3.org/2000/svg">
<g id="pencil">
<g clip-path="url(#clip0_156_4496)">
<path id="Vector" fill-rule="evenodd" clip-rule="evenodd" d="M11.3533 1.23297C10.952 1.22366 10.5969 1.35452 10.3754 1.57646C10.3552 1.59667 10.3339 1.61525 10.3116 1.63217L1.46433 10.4957L1.28682 12.7044L3.5283 12.5024L12.4417 3.57259C12.6617 3.35221 12.7837 3.01015 12.7685 2.62342C12.7533 2.23597 12.6015 1.868 12.3597 1.62576C12.1252 1.39085 11.7547 1.24228 11.3533 1.23297ZM9.58325 0.63073C10.0845 0.175121 10.754 -0.0137899 11.3818 0.00077951C12.0426 0.0161146 12.7341 0.257848 13.2296 0.754234C13.7178 1.24329 13.972 1.91885 13.9978 2.57493C14.0236 3.23174 13.8216 3.93321 13.3116 4.44412L4.24052 13.5319C4.13863 13.634 4.0042 13.697 3.86068 13.7099L0.67022 13.9975C0.489602 14.0138 0.311016 13.9494 0.182184 13.8215C0.0533514 13.6937 -0.0125986 13.5154 0.0019563 13.3343L0.256208 10.1708C0.267932 10.0249 0.331094 9.88801 0.43439 9.78452L9.50549 0.696711C9.52982 0.672332 9.55585 0.650317 9.58325 0.63073Z" fill="black"/>
</g>
</g>
<defs>
<clipPath id="clip0_156_4496">
<rect width="14" height="14" fill="white"/>
</clipPath>
</defs>
</svg>

<svg xmlns="http://www.w3.org/2000/svg" fill="none" viewBox="0 0 14 14"><g clip-path="url(#a)"><path fill="#000" fill-rule="evenodd" d="M11.353 1.233c-.401-.01-.756.122-.978.343a1 1 0 0 1-.063.056l-8.848 8.864-.177 2.208 2.241-.202 8.914-8.93c.22-.22.342-.562.326-.949-.015-.387-.167-.755-.408-.997-.235-.235-.605-.384-1.007-.393M9.583.631c.502-.456 1.171-.645 1.799-.63.66.015 1.352.257 1.848.753.488.49.742 1.165.768 1.82.026.658-.176 1.36-.686 1.87L4.24 13.532a.6.6 0 0 1-.38.178l-3.19.287a.614.614 0 0 1-.669-.663l.254-3.163a.62.62 0 0 1 .178-.386L9.505.697A1 1 0 0 1 9.583.63" clip-rule="evenodd"/></g><defs><clipPath id="a"><path fill="#fff" d="M0 0h14v14H0z"/></clipPath></defs></svg>
